public/operators/withbg/fezbet.svg

<svg width="150" height="120" viewBox="0 0 150 120" fill="none" xmlns="http://www.w3.org/2000/svg">
<g clip-path="url(#clip0_259_2)">
<rect width="150" height="120" fill="#2D2D32"/>
<path d="M150 0H0V120H150V0Z" fill="#2D2D32"/>
<path d="M90.2506 55.2001C91.8877 55.2001 93.3204 55.5601 94.5891 56.2402C95.8579 56.92 96.9222 57.9202 97.6181 59.2C98.3549 60.4801 98.7233 61.92 98.7233 63.6C98.7233 65.28 98.3549 66.72 97.6181 68.0001C96.9222 69.24 95.8579 70.2801 94.5891 70.9599C93.3204 71.64 91.8469 72 90.2506 72C89.1043 72 88.0403 71.7999 87.0988 71.4C86.1573 71.0001 85.3389 70.4001 84.7249 69.6399V71.76H81V49H84.9294V57.3601C85.5845 56.6401 86.4029 56.1202 87.2624 55.72C88.122 55.4002 89.1454 55.2001 90.2506 55.2001ZM89.8002 68.6799C91.2329 68.6799 92.4197 68.1999 93.3612 67.2801C94.3027 66.36 94.7528 65.1201 94.7528 63.5601C94.7528 62.04 94.3027 60.8002 93.3612 59.8402C92.4608 58.9201 91.2737 58.4401 89.8002 58.4401C88.8587 58.4401 87.9992 58.6402 87.2624 59.08C86.5257 59.4802 85.9117 60.0802 85.4617 60.84C85.0113 61.5999 84.8066 62.52 84.8066 63.5199C84.8066 64.56 85.0113 65.4399 85.4617 66.2001C85.8709 66.96 86.4848 67.56 87.2624 68.0001C87.9992 68.4801 88.8587 68.6799 89.8002 68.6799ZM118.165 63.6399C118.165 63.9201 118.165 64.2801 118.083 64.7601H104.986C105.231 65.9601 105.804 66.9201 106.786 67.6401C107.769 68.3199 108.997 68.6799 110.429 68.6799C112.271 68.6799 113.786 68.0799 114.973 66.9201L117.06 69.2799C116.323 70.1601 115.341 70.8399 114.195 71.28C113.049 71.7201 111.739 71.9601 110.307 71.9601C108.465 71.9601 106.868 71.6001 105.436 70.8801C104.044 70.1601 102.939 69.1599 102.161 67.92C101.425 66.6399 101.015 65.1999 101.015 63.5601C101.015 61.9599 101.384 60.52 102.12 59.2801C102.857 58 103.921 56.9602 105.231 56.2801C106.541 55.5601 108.014 55.2001 109.693 55.2001C111.33 55.2001 112.762 55.5601 114.031 56.2801C115.3 56.9602 116.364 58 117.06 59.2402C117.797 60.52 118.165 61.9599 118.165 63.6399ZM109.693 58.24C108.424 58.24 107.36 58.6 106.5 59.3602C105.64 60.0802 105.108 61.0401 104.945 62.2401H114.441C114.277 61.0401 113.745 60.0802 112.885 59.3602C112.066 58.6402 111.002 58.24 109.693 58.24ZM132 70.8399C131.55 71.1999 130.977 71.4801 130.322 71.6799C129.667 71.88 128.971 71.9601 128.234 71.9601C126.392 71.9601 124.96 71.4801 123.977 70.56C122.954 69.6399 122.463 68.2401 122.463 66.4401V58.5601H119.721V55.48H122.463V51.76H126.392V55.48H130.895V58.5601H126.392V66.36C126.392 67.1601 126.597 67.7601 127.006 68.1999C127.416 68.6001 127.989 68.7999 128.725 68.7999C129.585 68.7999 130.322 68.5599 130.936 68.1201L132 70.8399Z" fill="white"/>
<path d="M25.3329 55.6128V59.3816H34.4078V64.9535H25.3329V72H18V50H35.6636V55.5716H25.3329V55.6128ZM56.0014 66.3872V71.9591H37.9729V50H55.6368V55.5716H45.1437V58.1526H54.3403V63.4787H45.1437V66.3464H56.0014V66.3872ZM78 66.2235V71.9591H58.0676V67.4116L67.9931 55.7357H58.3915V50H77.5139V54.5475L67.588 66.2235H78Z" fill="#FFDC26"/>
</g>
<defs>
<clipPath id="clip0_259_2">
<rect width="150" height="120" fill="white"/>
</clipPath>
</defs>
</svg>

<svg xmlns="http://www.w3.org/2000/svg" width="150" height="120" fill="none"><g clip-path="url(#a)"><path fill="#2D2D32" d="M0 0h150v120H0z"/><path fill="#2D2D32" d="M150 0H0v120h150V0Z"/><path fill="#fff" d="M90.25 55.2a9 9 0 0 1 4.34 1.04 7.36 7.36 0 0 1 3.03 2.96 8.6 8.6 0 0 1 1.1 4.4 8.6 8.6 0 0 1-1.1 4.4 7.61 7.61 0 0 1-3.03 2.96 9.13 9.13 0 0 1-7.5.44 6.1 6.1 0 0 1-2.37-1.76v2.12H81V49h3.93v8.36a7.22 7.22 0 0 1 2.33-1.64 8.63 8.63 0 0 1 3-.52Zm-.45 13.48a4.9 4.9 0 0 0 3.56-1.4 4.95 4.95 0 0 0 1.4-3.72 4.77 4.77 0 0 0-4.95-5.12 4.88 4.88 0 0 0-5 5.08c0 1.04.2 1.92.65 2.68.41.76 1.02 1.36 1.8 1.8.74.48 1.6.68 2.54.68Zm28.37-5.04c0 .28 0 .64-.09 1.12h-13.1c.25 1.2.82 2.16 1.8 2.88a6.29 6.29 0 0 0 3.65 1.04c1.84 0 3.36-.6 4.54-1.76l2.09 2.36a6.95 6.95 0 0 1-2.87 2c-1.14.44-2.45.68-3.88.68-1.84 0-3.44-.36-4.87-1.08a8.3 8.3 0 0 1-3.28-2.96 8.58 8.58 0 0 1-1.14-4.36c0-1.6.36-3.04 1.1-4.28a7.66 7.66 0 0 1 3.11-3 9.07 9.07 0 0 1 4.46-1.08 8.6 8.6 0 0 1 4.34 1.08 7.61 7.61 0 0 1 3.03 2.96 8.59 8.59 0 0 1 1.1 4.4Zm-8.48-5.4a4.63 4.63 0 0 0-4.75 4h9.5a4.4 4.4 0 0 0-1.55-2.88 4.68 4.68 0 0 0-3.2-1.12ZM132 70.84c-.45.36-1.02.64-1.68.84a7.1 7.1 0 0 1-2.09.28c-1.84 0-3.27-.48-4.25-1.4-1.03-.92-1.52-2.32-1.52-4.12v-7.88h-2.74v-3.08h2.74v-3.72h3.93v3.72h4.5v3.08h-4.5v7.8c0 .8.2 1.4.62 1.84.4.4.98.6 1.71.6.87 0 1.6-.24 2.22-.68l1.06 2.72Z"/><path fill="#FFDC26" d="M25.33 55.61v3.77h9.08v5.57h-9.08V72H18V50h17.66v5.57H25.33v.04ZM56 66.4v5.57H37.97V50h17.67v5.57h-10.5v2.58h9.2v5.33h-9.2v2.87H56v.04Zm22-.17v5.74H58.07V67.4l9.92-11.67h-9.6V50h19.12v4.55L67.6 66.22H78Z"/></g><defs><clipPath id="a"><path fill="#fff" d="M0 0h150v120H0z"/></clipPath></defs></svg>
